X:655
T:Blackberry Blossom
M:4/4
L:1/8
K:G
(3 def|gabg fgaf|efge dBAG|DEFG ABcA|GABc d2 d2|
([g2B2] bg) ([f2A2] af)|([e2c2] ge) dBAG|DEFG ABcd|(B2 G2) G2 d2|
bgbg afaf|gfge dBAG|DEFG ABcA|GABc (d2 d2)|
gbag fagf|egfe dBAG|DEFG ABcd|(B2 G2) G2 z2 ||
([B2E2] [eE][BE]) ([d2E2] [eE][dE])|edB_B AGED|(E2 eB) (d2 eB)|dBd^d (B3A)|
Bdba gedB|AGED EGAB|cdec BdeB\
|1 (AF(3E/F/E/D) [G4B,4]:|2 (AF(3E/F/E/D) [G2B,2] (3def ||
